COLOR/apps 16/16/vim.svg

<svg height="16" width="16" xmlns="http://www.w3.org/2000/svg"><path d="m11.595042.50000636c3.47604 0 3.85006.30899 3.83302 3.32331004v4.1766902 4.1766794c.017 3.01433-.35698 3.32332-3.83302 3.32332h-7.1899599c-3.47604997 0-3.83302997-.30895-3.83302997-3.32332v-4.1766794-4.1766902c0-3.01436004.35699-3.32331004 3.83302997-3.32331004z" fill="#459419"/><path d="m10.310542.50000636c4.54055 0 5.18946.64729004 5.18946 5.18359004v3.6328202c0 4.5362894-.64891 5.1835894-5.18946 5.1835894h-4.6210899c-4.54053 0-5.18944997-.6473-5.18944997-5.1835894v-3.6328202c0-4.5363.64891997-5.18359004 5.18945997-5.18359004z" fill="none"/><path d="m4.4042969.5c-3.47604 0-3.83203128.30985871-3.83203128 3.3242188v.5c0-3.01436.35599129-3.3242188 3.83203128-3.3242188h7.1914061c3.47604 0 3.849071.3098987 3.832031 3.3242188v-.5c.01704-3.01432009-.355991-3.3242188-3.832031-3.3242188z" fill="#fff" opacity=".3"/><path d="m11.596236 15.5c3.47604 0 3.832031-.309859 3.832031-3.324219v-.5c0 3.01436-.355991 3.324219-3.832031 3.324219h-7.1914066c-3.47603999 0-3.84907099-.309899-3.83203099-3.324219v.5c-.01704 3.01432.355991 3.324219 3.83203099 3.324219z" opacity=".2"/><path d="m9.827108 2.3469151-.1706185.1609562v.5915814l.1487832.1424312h.7936803v.5710251l-5.2444835 5.0029688v-5.5660314h.8708645l.1787429-.1689187v-.5979189l-.1645247-.1213875h-4.5904459l-.1487832.1425125v.6122189l.1508144.1424312h.7992656v10.2518001l.1487833.142513h.90641l10.9947266-10.6724318v-.4701939l-.170618-.1609562h-4.502597m-.00204-.00212" fill="#f2f2f2" stroke-width=".8125"/></svg>

<?xml version="1.0" encoding="UTF-8" standalone="no"?>
<svg
   xmlns:dc="http://purl.org/dc/elements/1.1/"
   xmlns:cc="http://creativecommons.org/ns#"
   xmlns:rdf="http://www.w3.org/1999/02/22-rdf-syntax-ns#"
   xmlns:svg="http://www.w3.org/2000/svg"
   xmlns="http://www.w3.org/2000/svg"
   xmlns:sodipodi="http://sodipodi.sourceforge.net/DTD/sodipodi-0.dtd"
   xmlns:inkscape="http://www.inkscape.org/namespaces/inkscape"
   height="16"
   width="16"
   version="1.1"
   id="svg10"
   sodipodi:docname="vim.svg"
   inkscape:version="0.92.4 (5da689c313, 2019-01-14)">
  <metadata
     id="metadata16">
    <rdf:RDF>
      <cc:Work
         rdf:about="">
        <dc:format>image/svg+xml</dc:format>
        <dc:type
           rdf:resource="http://purl.org/dc/dcmitype/StillImage" />
      </cc:Work>
    </rdf:RDF>
  </metadata>
  <defs
     id="defs14" />
  <sodipodi:namedview
     pagecolor="#ffffff"
     bordercolor="#666666"
     borderopacity="1"
     objecttolerance="10"
     gridtolerance="10"
     guidetolerance="10"
     inkscape:pageopacity="0"
     inkscape:pageshadow="2"
     inkscape:window-width="1920"
     inkscape:window-height="1016"
     id="namedview12"
     showgrid="false"
     inkscape:zoom="14.75"
     inkscape:cx="-4.9830508"
     inkscape:cy="8"
     inkscape:window-x="0"
     inkscape:window-y="27"
     inkscape:window-maximized="1"
     inkscape:current-layer="svg10" />
  <path
     d="m11.595042.50000636c3.47604 0 3.85006.30899 3.83302 3.32331004v4.1766902 4.1766794c.017 3.01433-.35698 3.32332-3.83302 3.32332h-7.1899599c-3.47604997 0-3.83302997-.30895-3.83302997-3.32332v-4.1766794-4.1766902c0-3.01436004.35699-3.32331004 3.83302997-3.32331004z"
     fill="#459419"
     id="path2" />
  <path
     d="m10.310542.50000636c4.54055 0 5.18946.64729004 5.18946 5.18359004v3.6328202c0 4.5362894-.64891 5.1835894-5.18946 5.1835894h-4.6210899c-4.54053 0-5.18944997-.6473-5.18944997-5.1835894v-3.6328202c0-4.5363.64891997-5.18359004 5.18945997-5.18359004z"
     fill="none"
     id="path4" />
  <path
     d="m4.4042969.5c-3.47604 0-3.83203128.30985871-3.83203128 3.3242188v.5c0-3.01436.35599129-3.3242188 3.83203128-3.3242188h7.1914061c3.47604 0 3.849071.3098987 3.832031 3.3242188v-.5c.01704-3.01432009-.355991-3.3242188-3.832031-3.3242188z"
     fill="#fff"
     opacity=".3"
     id="path6" />
  <path
     d="m11.596236 15.5c3.47604 0 3.832031-.309859 3.832031-3.324219v-.5c0 3.01436-.355991 3.324219-3.832031 3.324219h-7.1914066c-3.47603999 0-3.84907099-.309899-3.83203099-3.324219v.5c-.01704 3.01432.355991 3.324219 3.83203099 3.324219z"
     opacity=".2"
     id="path8" />
  <path
     id="path18"
     d="M 9.827108,2.3469151 9.6564895,2.5078713 V 3.0994527 L 9.8052727,3.2418839 H 10.598953 V 3.812909 L 5.3544695,8.8158778 V 3.2498464 H 6.225334 L 6.4040769,3.0809277 V 2.4830088 L 6.2395522,2.3616213 H 1.6491063 L 1.5003231,2.5041338 V 3.1163527 L 1.6511375,3.2587839 H 2.4504031 V 13.510584 l 0.1487833,0.142513 h 0.90641 L 14.500323,2.9806652 V 2.5104713 L 14.329705,2.3495151 H 9.827108 m -0.00204,-0.00212"
     style="fill:#f2f2f2;fill-opacity:1;stroke-width:0.8125"
     inkscape:connector-curvature="0" />
</svg>
